X:1
T:El Cobre, LMD
T:El Cobre, LMD
T:Adam Geibel, 1901
T:Public Domain Courtesy of the Cyber Hymnal™
C:Adam Geibel, 1901
Z:Public Domain
Z:Courtesy of the Cyber Hymnal™
%%score ( 1 2 ) ( 3 4 )
L:1/8
Q:1/4=85
M:3/4
K:A
V:1 treble 
V:2 treble 
V:3 bass 
V:4 bass 
V:1
 [CE] | [CE][CF] [CG][CA] [Ec]>[DB] | ([DB]2 [CA]2) z [EG] | [EG][DF] [DF][EF] [Fd][FB] | %4
 (A2 G2) z [DE] | [CE][CF] [CG][CA] [Ec]>[DB] | (B2 A2) z [CG] | [^DG][DF] [Dc][DB] [DA][DF] | %8
 E4 z [B,E] | [CF][CF] [CF][CF] [CF][CF] | (A2 G2) z [DG] | [EA][EA] [EA][EA] [GB][Ac] | %12
 d4 z [GB] | [Ac][Ac] [=Ge][Ge] [Gc][GA] | ([=GA]2 [Fd]2) z [=Fd] | [Ec][Ec] [^Dc][DB] [Ec]>[=DB] | %16
 [CA]4 z |] %17
V:2
 x | x6 | x6 | x6 | F4 x2 | x6 | C4 x2 | x6 | E4 x2 | x6 | D4 x2 | x6 | (A2 G2) x2 | x6 | x6 | x6 | %16
 x5 |] %17
V:3
 [A,,E,] | [A,,E,][A,,E,] [A,,E,][A,,E,] [E,G,]>[E,G,] | [A,,A,]4 z [C,A,] | %3
 [D,A,][D,A,] [D,A,][C,^A,] [B,,B,][D,B,] | [E,B,]4 z [E,G,] | %5
 [A,,A,][A,,E,] [A,,E,][A,,E,] [E,G,]>[^E,G,] | F,4 z [A,,A,] | %7
 [B,,A,][B,,A,] [B,,A,][B,,A,] [B,,F,][B,,A,] | [E,G,]4 z [E,G,] | %9
 [E,A,][E,A,] [E,A,][E,A,] [E,A,][E,A,] | [E,B,]4 z [E,B,] | [E,C][E,C] [E,C][E,C] [E,D][E,A,] | %12
 [E,B,]4 z [E,D] | [A,C][A,C] [A,C][A,C] [A,E][A,C] | (D2 A,2) z [B,,A,] | %15
 [E,A,][E,A,] [B,,A,][B,,A,] [E,G,]>[E,G,] | [A,,E,]4 z |] %17
V:4
 x | x6 | x6 | x6 | x6 | x6 | F,4 x2 | x6 | x6 | x6 | x6 | x6 | x6 | x6 | D,4 x2 | x6 | x5 |] %17

